flaticon/sport/baseball-2.svg

<svg xmlns="http://www.w3.org/2000/svg" width="32" height="32" viewBox="0 0 24 24">
    <path d="M6.945312 5.492188C6.945312 5.714844 6.761719 5.894531 6.542969 5.894531 6.320312 5.894531 6.140625 5.714844 6.140625 5.492188 6.140625 5.269531 6.320312 5.089844 6.542969 5.089844 6.761719 5.089844 6.945312 5.269531 6.945312 5.492188zM4.53125 7.503906C4.53125 7.726562 4.351562 7.90625 4.128906 7.90625 3.90625 7.90625 3.726562 7.726562 3.726562 7.503906 3.726562 7.28125 3.90625 7.101562 4.128906 7.101562 4.351562 7.101562 4.53125 7.28125 4.53125 7.503906zM5.738281 6.296875C5.738281 6.519531 5.558594 6.699219 5.335938 6.699219 5.113281 6.699219 4.933594 6.519531 4.933594 6.296875 4.933594 6.074219 5.113281 5.894531 5.335938 5.894531 5.558594 5.894531 5.738281 6.074219 5.738281 6.296875zM5.738281 8.710938C5.738281 8.933594 5.558594 9.113281 5.335938 9.113281 5.113281 9.113281 4.933594 8.933594 4.933594 8.710938 4.933594 8.488281 5.113281 8.308594 5.335938 8.308594 5.558594 8.308594 5.738281 8.488281 5.738281 8.710938zM6.945312 7.503906C6.945312 7.726562 6.761719 7.90625 6.542969 7.90625 6.320312 7.90625 6.140625 7.726562 6.140625 7.503906 6.140625 7.28125 6.320312 7.101562 6.542969 7.101562 6.761719 7.101562 6.945312 7.28125 6.945312 7.503906zM6.140625 10.722656C6.140625 10.945312 5.957031 11.125 5.738281 11.125 5.515625 11.125 5.335938 10.945312 5.335938 10.722656 5.335938 10.5 5.515625 10.320312 5.738281 10.320312 5.957031 10.320312 6.140625 10.5 6.140625 10.722656zM6.945312 9.515625C6.945312 9.738281 6.761719 9.917969 6.542969 9.917969 6.320312 9.917969 6.140625 9.738281 6.140625 9.515625 6.140625 9.292969 6.320312 9.113281 6.542969 9.113281 6.761719 9.113281 6.945312 9.292969 6.945312 9.515625zM6.945312 9.515625"/>
    <path d="M 22.902344 3.925781 C 22.691406 3.144531 22.109375 2.535156 21.335938 2.296875 C 20.753906 2.117188 20.140625 2.175781 19.621094 2.445312 C 19.425781 2 19.042969 1.394531 18.367188 1.097656 C 17.683594 0.796875 16.878906 0.875 15.964844 1.324219 C 15.710938 0.890625 15.199219 0.246094 14.382812 0.0546875 C 13.5625 -0.136719 12.664062 0.175781 11.714844 0.984375 C 11.246094 0.769531 10.257812 0.453125 9.296875 1.027344 C 8.632812 1.421875 8.132812 2.164062 7.785156 3.238281 C 5.070312 3.75 2.816406 5.5625 1.835938 8.03125 C 1.828125 8.035156 1.820312 8.039062 1.816406 8.042969 C 1.21875 8.382812 0.503906 9.332031 0.503906 11.929688 C 0.503906 18.015625 2.261719 19.667969 7.796875 23.835938 C 7.84375 23.878906 7.914062 23.929688 7.957031 23.949219 C 7.972656 23.957031 7.984375 23.960938 8 23.96875 C 8.011719 23.972656 8.023438 23.976562 8.035156 23.980469 C 8.066406 23.992188 8.101562 23.996094 8.136719 23.996094 C 8.140625 23.996094 8.144531 24 8.148438 24 L 17 24 C 17.113281 24 17.21875 23.953125 17.292969 23.875 C 17.339844 23.824219 19.710938 21.25 21.507812 17.238281 C 21.539062 17.207031 21.5625 17.171875 21.582031 17.132812 C 21.597656 17.089844 21.605469 17.050781 21.609375 17.007812 C 23.148438 13.476562 24.214844 8.882812 22.902344 3.925781 Z M 7.554688 4.105469 C 7.464844 4.515625 7.398438 4.964844 7.34375 5.449219 C 7.339844 5.484375 7.339844 5.519531 7.335938 5.554688 C 7.316406 5.753906 7.296875 5.953125 7.28125 6.164062 C 7.277344 6.265625 7.273438 6.375 7.265625 6.480469 C 7.257812 6.628906 7.25 6.773438 7.242188 6.929688 C 7.238281 7.101562 7.234375 7.289062 7.234375 7.46875 C 7.234375 7.5625 7.230469 7.652344 7.230469 7.746094 C 7.226562 7.972656 7.230469 8.210938 7.234375 8.449219 C 7.238281 8.507812 7.238281 8.5625 7.238281 8.621094 C 7.246094 8.894531 7.253906 9.175781 7.269531 9.460938 C 7.269531 9.492188 7.269531 9.519531 7.273438 9.546875 C 7.289062 9.867188 7.308594 10.191406 7.332031 10.527344 C 6.933594 10.832031 6.089844 11.609375 5.75 12.894531 C 5.746094 12.902344 5.742188 12.914062 5.742188 12.925781 C 5.726562 12.988281 5.710938 13.054688 5.699219 13.121094 C 5.691406 13.160156 5.679688 13.195312 5.675781 13.234375 C 5.664062 13.28125 5.660156 13.328125 5.65625 13.371094 C 5.644531 13.4375 5.632812 13.5 5.628906 13.5625 C 5.625 13.59375 5.625 13.621094 5.621094 13.648438 C 5.613281 13.734375 5.609375 13.820312 5.605469 13.90625 C 5.25 13.3125 4.910156 12.402344 4.929688 11.132812 C 4.933594 10.988281 4.925781 10.84375 4.910156 10.699219 C 4.902344 10.613281 4.886719 10.527344 4.871094 10.441406 C 4.863281 10.390625 4.855469 10.339844 4.84375 10.289062 C 4.648438 9.363281 4.117188 8.53125 3.414062 8.113281 C 3.203125 7.988281 2.992188 7.910156 2.78125 7.875 C 3.691406 6.003906 5.445312 4.617188 7.554688 4.105469 Z M 20.957031 16.496094 C 20.832031 16.519531 20.714844 16.597656 20.660156 16.726562 C 20.609375 16.851562 20.628906 16.984375 20.695312 17.09375 C 19.332031 20.070312 17.664062 22.199219 17 22.984375 L 17 21.585938 C 17 21.363281 16.820312 21.183594 16.597656 21.183594 C 16.375 21.183594 16.195312 21.363281 16.195312 21.585938 L 16.195312 23.195312 L 15.390625 23.195312 L 15.390625 21.585938 C 15.390625 21.363281 15.210938 21.183594 14.988281 21.183594 C 14.765625 21.183594 14.585938 21.363281 14.585938 21.585938 L 14.585938 23.195312 L 13.78125 23.195312 L 13.78125 21.585938 C 13.78125 21.363281 13.601562 21.183594 13.378906 21.183594 C 13.15625 21.183594 12.976562 21.363281 12.976562 21.585938 L 12.976562 23.195312 L 12.171875 23.195312 L 12.171875 21.585938 C 12.171875 21.363281 11.992188 21.183594 11.769531 21.183594 C 11.546875 21.183594 11.367188 21.363281 11.367188 21.585938 L 11.367188 23.195312 L 10.5625 23.195312 L 10.5625 21.585938 C 10.5625 21.363281 10.382812 21.183594 10.160156 21.183594 C 9.941406 21.183594 9.757812 21.363281 9.757812 21.585938 L 9.757812 23.195312 L 8.953125 23.195312 L 8.953125 21.585938 C 8.953125 21.363281 8.773438 21.183594 8.550781 21.183594 C 8.332031 21.183594 8.148438 21.363281 8.148438 21.585938 L 8.148438 23.085938 C 8.140625 23.082031 8.132812 23.078125 8.125 23.074219 C 2.847656 19.09375 1.3125 17.597656 1.3125 11.929688 C 1.3125 9.515625 1.941406 8.894531 2.214844 8.742188 C 2.320312 8.679688 2.433594 8.65625 2.539062 8.65625 C 2.78125 8.683594 3.003906 8.824219 3.132812 8.921875 C 3.578125 9.261719 4.015625 9.9375 4.109375 10.753906 C 4.121094 10.871094 4.128906 10.992188 4.128906 11.117188 C 4.074219 14.136719 5.832031 15.421875 5.90625 15.476562 C 5.941406 15.5 5.976562 15.519531 6.015625 15.53125 C 6.023438 15.535156 6.03125 15.53125 6.039062 15.535156 C 6.070312 15.542969 6.105469 15.550781 6.136719 15.550781 C 6.136719 15.550781 6.140625 15.550781 6.140625 15.550781 C 6.15625 15.550781 6.171875 15.546875 6.1875 15.542969 C 6.210938 15.539062 6.234375 15.539062 6.253906 15.535156 C 6.292969 15.523438 6.328125 15.503906 6.363281 15.484375 C 6.5 15.390625 6.570312 15.222656 6.53125 15.058594 C 5.90625 12.34375 7.871094 11.117188 7.953125 11.070312 C 8.085938 10.992188 8.160156 10.84375 8.148438 10.691406 C 8.121094 10.335938 8.101562 9.992188 8.082031 9.652344 C 8.082031 9.617188 8.078125 9.578125 8.078125 9.542969 C 8.0625 9.234375 8.050781 8.9375 8.042969 8.648438 C 8.042969 8.585938 8.039062 8.523438 8.039062 8.460938 C 8.035156 8.199219 8.035156 7.949219 8.035156 7.703125 C 8.035156 7.617188 8.035156 7.535156 8.035156 7.453125 C 8.039062 7.238281 8.046875 7.03125 8.054688 6.824219 C 8.058594 6.707031 8.0625 6.589844 8.070312 6.476562 C 8.078125 6.320312 8.089844 6.167969 8.101562 6.019531 C 8.117188 5.855469 8.128906 5.695312 8.148438 5.542969 C 8.15625 5.457031 8.167969 5.367188 8.175781 5.28125 C 8.199219 5.109375 8.222656 4.945312 8.25 4.789062 C 8.257812 4.726562 8.269531 4.664062 8.28125 4.601562 C 8.308594 4.445312 8.339844 4.292969 8.371094 4.152344 C 8.394531 4.054688 8.417969 3.960938 8.441406 3.871094 C 8.792969 2.53125 9.304688 1.960938 9.703125 1.722656 C 10.417969 1.289062 11.191406 1.617188 11.457031 1.753906 C 11.8125 2.484375 11.839844 3.761719 11.707031 5.167969 L 11.21875 4.777344 C 11.042969 4.636719 10.792969 4.667969 10.652344 4.839844 C 10.511719 5.011719 10.542969 5.265625 10.714844 5.40625 L 11.480469 6.019531 L 10.683594 6.816406 C 10.523438 6.976562 10.523438 7.230469 10.683594 7.386719 C 10.761719 7.464844 10.863281 7.503906 10.964844 7.503906 C 11.070312 7.503906 11.171875 7.464844 11.25 7.386719 L 11.433594 7.207031 C 11.167969 8.738281 10.816406 10.1875 10.578125 11.015625 C 10.519531 11.230469 10.644531 11.453125 10.855469 11.511719 C 10.894531 11.523438 10.929688 11.527344 10.964844 11.527344 C 11.140625 11.527344 11.304688 11.410156 11.351562 11.234375 C 11.398438 11.074219 11.984375 8.988281 12.332031 6.699219 L 12.726562 7.015625 C 12.800781 7.074219 12.890625 7.101562 12.976562 7.101562 C 13.097656 7.101562 13.210938 7.050781 13.292969 6.949219 C 13.429688 6.777344 13.402344 6.523438 13.230469 6.386719 L 12.6875 5.949219 L 13.261719 5.375 C 13.417969 5.21875 13.417969 4.964844 13.261719 4.804688 C 13.105469 4.648438 12.851562 4.648438 12.695312 4.804688 L 12.535156 4.964844 C 12.636719 3.652344 12.59375 2.417969 12.261719 1.578125 C 12.996094 0.960938 13.648438 0.710938 14.195312 0.835938 C 14.886719 0.996094 15.277344 1.710938 15.386719 1.941406 C 15.335938 2.667969 15.285156 3.34375 15.234375 3.972656 C 15.074219 3.851562 14.851562 3.855469 14.707031 4 C 14.546875 4.15625 14.546875 4.414062 14.707031 4.570312 L 14.945312 4.808594 L 14.378906 5.148438 C 14.191406 5.261719 14.128906 5.507812 14.242188 5.699219 C 14.316406 5.824219 14.453125 5.894531 14.585938 5.894531 C 14.65625 5.894531 14.730469 5.875 14.792969 5.835938 L 15.074219 5.667969 C 14.65625 9.804688 14.207031 11.394531 14.203125 11.414062 C 14.140625 11.625 14.261719 11.851562 14.476562 11.910156 C 14.511719 11.921875 14.550781 11.929688 14.589844 11.929688 C 14.761719 11.929688 14.921875 11.816406 14.972656 11.640625 C 14.996094 11.558594 15.453125 9.957031 15.878906 5.742188 L 16.316406 6.179688 C 16.394531 6.257812 16.496094 6.296875 16.597656 6.296875 C 16.703125 6.296875 16.804688 6.257812 16.882812 6.179688 C 17.039062 6.019531 17.039062 5.765625 16.882812 5.609375 L 16.242188 4.96875 L 16.804688 4.628906 C 16.996094 4.515625 17.058594 4.269531 16.945312 4.078125 C 16.832031 3.886719 16.582031 3.824219 16.390625 3.941406 L 16.023438 4.160156 C 16.078125 3.527344 16.132812 2.847656 16.179688 2.117188 C 16.929688 1.71875 17.554688 1.621094 18.035156 1.832031 C 18.695312 2.117188 18.953125 2.910156 19.007812 3.113281 C 18.929688 4.300781 18.832031 5.355469 18.722656 6.292969 L 18.523438 6.042969 C 18.382812 5.871094 18.132812 5.84375 17.957031 5.980469 C 17.785156 6.121094 17.757812 6.375 17.894531 6.546875 L 18.53125 7.339844 L 17.582031 7.972656 C 17.398438 8.097656 17.347656 8.347656 17.472656 8.53125 C 17.550781 8.648438 17.675781 8.710938 17.808594 8.710938 C 17.882812 8.710938 17.960938 8.6875 18.03125 8.640625 L 18.441406 8.367188 C 17.96875 11.351562 17.453125 12.542969 17.441406 12.566406 C 17.347656 12.769531 17.4375 13.007812 17.640625 13.097656 C 17.695312 13.125 17.75 13.136719 17.804688 13.136719 C 17.960938 13.136719 18.105469 13.046875 18.171875 12.898438 C 18.207031 12.828125 18.773438 11.539062 19.273438 8.269531 L 19.503906 8.558594 C 19.582031 8.660156 19.699219 8.710938 19.816406 8.710938 C 19.90625 8.710938 19.996094 8.679688 20.070312 8.621094 C 20.242188 8.484375 20.269531 8.230469 20.132812 8.054688 L 19.707031 7.523438 L 20.441406 7.03125 C 20.628906 6.910156 20.679688 6.660156 20.554688 6.476562 C 20.429688 6.289062 20.179688 6.238281 19.996094 6.363281 L 19.484375 6.703125 C 19.605469 5.707031 19.714844 4.570312 19.804688 3.28125 C 20.175781 3.003906 20.640625 2.921875 21.097656 3.0625 C 21.601562 3.222656 21.984375 3.621094 22.121094 4.128906 C 23.359375 8.789062 22.394531 13.125 20.957031 16.496094 Z M 20.957031 16.496094"/>
    <path d="M17.394531 15.597656C17.253906 15.585938 17.109375 15.578125 16.964844 15.570312 16.726562 15.558594 16.550781 15.730469 16.539062 15.949219 16.527344 16.171875 16.699219 16.359375 16.921875 16.375 17.058594 16.378906 17.195312 16.390625 17.328125 16.398438 17.339844 16.402344 17.351562 16.402344 17.363281 16.402344 17.570312 16.402344 17.746094 16.242188 17.761719 16.03125 17.78125 15.8125 17.617188 15.617188 17.394531 15.597656zM15.230469 15.582031C15.085938 15.589844 14.941406 15.601562 14.796875 15.617188 14.578125 15.640625 14.414062 15.835938 14.4375 16.058594 14.457031 16.265625 14.632812 16.417969 14.835938 16.417969 14.851562 16.417969 14.863281 16.417969 14.878906 16.417969 15.011719 16.402344 15.148438 16.394531 15.285156 16.382812 15.503906 16.371094 15.675781 16.179688 15.660156 15.957031 15.644531 15.734375 15.449219 15.570312 15.230469 15.582031zM19.539062 15.953125C19.398438 15.917969 19.257812 15.882812 19.113281 15.855469 18.898438 15.804688 18.683594 15.941406 18.636719 16.160156 18.585938 16.378906 18.726562 16.59375 18.941406 16.640625 19.074219 16.667969 19.207031 16.699219 19.335938 16.734375 19.371094 16.742188 19.402344 16.746094 19.4375 16.746094 19.617188 16.746094 19.78125 16.625 19.828125 16.445312 19.882812 16.230469 19.753906 16.011719 19.539062 15.953125zM13.085938 15.886719C12.941406 15.917969 12.800781 15.949219 12.664062 15.988281 12.445312 16.042969 12.320312 16.261719 12.375 16.476562 12.421875 16.660156 12.582031 16.777344 12.761719 16.777344 12.796875 16.777344 12.832031 16.773438 12.863281 16.765625 12.996094 16.730469 13.125 16.699219 13.261719 16.671875 13.476562 16.621094 13.613281 16.410156 13.566406 16.191406 13.515625 15.972656 13.304688 15.835938 13.085938 15.886719zM11.011719 16.542969C10.875 16.601562 10.742188 16.660156 10.609375 16.722656 10.410156 16.820312 10.324219 17.058594 10.417969 17.261719 10.488281 17.40625 10.632812 17.488281 10.785156 17.488281 10.839844 17.488281 10.898438 17.476562 10.957031 17.449219 11.078125 17.394531 11.199219 17.335938 11.324219 17.285156 11.53125 17.199219 11.625 16.960938 11.539062 16.757812 11.453125 16.550781 11.214844 16.457031 11.011719 16.542969zM8.117188 19.132812C7.929688 19.019531 7.679688 19.074219 7.566406 19.265625 7.484375 19.398438 7.410156 19.535156 7.34375 19.671875 7.246094 19.875 7.332031 20.113281 7.53125 20.210938 7.589844 20.234375 7.648438 20.25 7.707031 20.25 7.855469 20.25 8 20.164062 8.070312 20.019531 8.125 19.90625 8.183594 19.796875 8.25 19.6875 8.367188 19.496094 8.308594 19.25 8.117188 19.132812zM9.097656 17.628906C8.976562 17.71875 8.859375 17.8125 8.75 17.90625 8.582031 18.050781 8.558594 18.304688 8.703125 18.472656 8.785156 18.566406 8.898438 18.617188 9.011719 18.617188 9.101562 18.617188 9.195312 18.585938 9.269531 18.519531 9.371094 18.433594 9.472656 18.351562 9.582031 18.273438 9.757812 18.136719 9.792969 17.886719 9.660156 17.707031 9.527344 17.53125 9.277344 17.496094 9.097656 17.628906zM7.335938 21.070312C7.113281 21.078125 6.9375 21.261719 6.945312 21.484375 6.949219 21.640625 6.964844 21.796875 6.988281 21.953125 7.015625 22.152344 7.1875 22.296875 7.382812 22.296875 7.402344 22.296875 7.425781 22.292969 7.445312 22.292969 7.664062 22.257812 7.816406 22.054688 7.78125 21.832031 7.765625 21.710938 7.753906 21.585938 7.75 21.460938 7.742188 21.242188 7.554688 21.078125 7.335938 21.070312zM7.335938 21.070312"/>
</svg>

<svg xmlns="http://www.w3.org/2000/svg" width="32" height="32" viewBox="0 0 24 24">
    <path d="M6.945 5.492a.402.402 0 1 1-.806.001.402.402 0 0 1 .806 0zm0 0M4.531 7.504a.402.402 0 1 1-.803.001.402.402 0 0 1 .803-.001zm0 0M5.738 6.297a.402.402 0 1 1-.803.001.402.402 0 0 1 .803-.001zm0 0M5.738 8.71a.402.402 0 1 1-.803.002.402.402 0 0 1 .803-.001zm0 0M6.945 7.504a.402.402 0 1 1-.806.001.402.402 0 0 1 .806-.001zm0 0M6.14 10.723a.402.402 0 1 1-.806.001.402.402 0 0 1 .807-.001zm0 0M6.945 9.516a.402.402 0 1 1-.806.001.402.402 0 0 1 .806-.001zm0 0"/>
    <path d="M22.902 3.926a2.324 2.324 0 0 0-1.566-1.63 2.265 2.265 0 0 0-1.715.15c-.195-.446-.578-1.051-1.254-1.348-.683-.301-1.488-.223-2.402.226-.254-.433-.766-1.078-1.582-1.27-.82-.19-1.719.122-2.668.93-.469-.214-1.457-.53-2.418.043-.664.395-1.164 1.137-1.512 2.211-2.715.512-4.969 2.325-5.95 4.793-.007.004-.015.008-.019.012C1.22 8.383.504 9.332.504 11.93c0 6.086 1.758 7.738 7.293 11.906a.76.76 0 0 0 .16.113l.043.02.035.011a.291.291 0 0 0 .102.016c.004 0 .008.004.011.004H17a.404.404 0 0 0 .293-.125c.047-.05 2.418-2.625 4.215-6.637a.396.396 0 0 0 .074-.105.479.479 0 0 0 .027-.125c1.54-3.531 2.606-8.125 1.293-13.082zm-15.347.18c-.09.41-.157.859-.211 1.343-.004.035-.004.07-.008.106-.02.199-.04.398-.055.61-.004.1-.008.21-.015.315l-.024.45a24.1 24.1 0 0 0-.008.539c0 .093-.004.183-.004.277-.003.227 0 .465.004.703.004.059.004.114.004.172.008.274.016.555.032.84 0 .031 0 .059.003.086.016.32.036.644.059.98a4.48 4.48 0 0 0-1.59 2.399 2.864 2.864 0 0 0-.043.195c-.008.04-.02.074-.023.113-.012.047-.016.094-.02.137-.011.066-.023.129-.027.191-.004.032-.004.06-.008.086a5.703 5.703 0 0 0-.016.258c-.355-.594-.695-1.504-.675-2.773a3.222 3.222 0 0 0-.02-.434c-.008-.086-.023-.172-.039-.258-.008-.05-.016-.101-.027-.152-.196-.926-.727-1.758-1.43-2.176a1.826 1.826 0 0 0-.633-.238c.91-1.871 2.664-3.258 4.774-3.77zm13.402 12.39a.396.396 0 0 0-.297.23.406.406 0 0 0 .035.368c-1.363 2.976-3.03 5.105-3.695 5.89v-1.398a.402.402 0 1 0-.805 0v1.61h-.804v-1.61a.402.402 0 1 0-.805 0v1.61h-.805v-1.61a.402.402 0 1 0-.804 0v1.61h-.805v-1.61a.402.402 0 1 0-.805 0v1.61h-.805v-1.61a.402.402 0 1 0-.804 0v1.61h-.805v-1.61a.402.402 0 1 0-.805 0v1.5l-.023-.012c-5.277-3.98-6.813-5.476-6.813-11.144 0-2.414.63-3.035.903-3.188a.631.631 0 0 1 .324-.086c.242.028.465.168.594.266.445.34.883 1.015.976 1.832.012.117.02.238.02.363-.055 3.02 1.703 4.305 1.777 4.36a.41.41 0 0 0 .11.054c.007.004.015 0 .023.004a.424.424 0 0 0 .098.016h.004c.015 0 .03-.004.046-.008.024-.004.047-.004.067-.008.039-.012.074-.031.11-.05a.404.404 0 0 0 .167-.426c-.625-2.715 1.34-3.942 1.422-3.989a.403.403 0 0 0 .195-.379c-.027-.355-.046-.699-.066-1.039 0-.035-.004-.074-.004-.109a37.937 37.937 0 0 1-.035-.895c0-.062-.004-.125-.004-.187-.004-.262-.004-.512-.004-.758v-.25c.004-.215.012-.422.02-.629a15.793 15.793 0 0 1 .047-.805c.015-.164.027-.324.046-.476.008-.086.02-.176.028-.262.023-.172.047-.336.074-.492.008-.062.02-.125.031-.187.028-.157.059-.309.09-.45l.07-.28c.352-1.34.864-1.911 1.262-2.15.715-.433 1.488-.105 1.754.032.355.73.383 2.008.25 3.414l-.488-.39a.403.403 0 0 0-.504.628l.765.614-.796.796a.399.399 0 0 0 0 .57.399.399 0 0 0 .566 0l.184-.179a39.183 39.183 0 0 1-.856 3.809.404.404 0 0 0 .387.511.4.4 0 0 0 .387-.293c.046-.16.632-2.246.98-4.535l.395.317a.404.404 0 0 0 .566-.067.402.402 0 0 0-.063-.562l-.543-.438.575-.574a.406.406 0 0 0 0-.57.4.4 0 0 0-.567 0l-.16.16c.102-1.313.059-2.547-.273-3.387.734-.617 1.386-.867 1.933-.742.692.16 1.082.875 1.192 1.105-.051.727-.102 1.403-.153 2.032a.4.4 0 0 0-.527.597l.238.239-.566.34a.404.404 0 0 0-.137.55.396.396 0 0 0 .55.137l.282-.168c-.418 4.137-.867 5.727-.87 5.746a.397.397 0 0 0 .273.496c.035.012.074.02.113.02a.4.4 0 0 0 .383-.29c.023-.081.48-1.683.906-5.898l.437.438a.399.399 0 0 0 .566 0 .406.406 0 0 0 0-.57l-.64-.641.563-.34a.401.401 0 1 0-.414-.688l-.368.22c.055-.634.11-1.313.157-2.044.75-.398 1.375-.496 1.855-.285.66.285.918 1.078.973 1.281a63.349 63.349 0 0 1-.285 3.18l-.2-.25a.407.407 0 0 0-.566-.063.407.407 0 0 0-.062.567l.636.793-.949.633a.403.403 0 0 0 .45.668l.41-.274c-.473 2.985-.989 4.176-1 4.2a.397.397 0 0 0 .199.53c.054.028.109.04.164.04a.4.4 0 0 0 .367-.239c.035-.07.601-1.359 1.101-4.628l.23.289a.392.392 0 0 0 .313.152.406.406 0 0 0 .316-.656l-.425-.532.734-.492a.395.395 0 0 0 .114-.554.4.4 0 0 0-.559-.114l-.512.34c.121-.996.23-2.133.32-3.422.372-.277.837-.36 1.294-.219.504.16.886.56 1.023 1.067 1.238 4.66.274 8.996-1.164 12.367zm0 0"/>
    <path d="M17.395 15.598c-.141-.012-.286-.02-.43-.028a.396.396 0 0 0-.426.38c-.012.222.16.41.383.425.137.004.273.016.406.023a.108.108 0 0 0 .035.004.4.4 0 0 0 .399-.37.402.402 0 0 0-.367-.434zm0 0M15.23 15.582c-.144.008-.289.02-.433.035a.403.403 0 0 0-.36.442c.02.207.196.359.399.359h.043c.133-.016.27-.023.406-.035a.4.4 0 0 0 .375-.426.408.408 0 0 0-.43-.375zm0 0M19.54 15.953c-.142-.035-.282-.07-.427-.098a.395.395 0 0 0-.476.305.4.4 0 0 0 .304.48c.133.028.266.06.395.094a.405.405 0 0 0 .492-.29.407.407 0 0 0-.289-.49zm0 0M13.086 15.887a6.661 6.661 0 0 0-.422.101.398.398 0 0 0-.289.489c.047.183.207.3.387.3.035 0 .07-.004.101-.011.133-.036.262-.067.399-.094a.405.405 0 0 0 .304-.48.4.4 0 0 0-.48-.305zm0 0M11.012 16.543c-.137.059-.27.117-.403.18a.409.409 0 0 0-.191.539.405.405 0 0 0 .539.187c.121-.054.242-.113.367-.164a.402.402 0 1 0-.312-.742zm0 0M8.117 19.133a.4.4 0 0 0-.55.133c-.083.132-.157.27-.223.406a.404.404 0 0 0 .187.539c.059.023.117.039.176.039a.407.407 0 0 0 .363-.23c.055-.114.114-.223.18-.332a.401.401 0 0 0-.133-.555zm0 0M9.098 17.629c-.121.09-.239.183-.348.277a.402.402 0 0 0 .52.614c.101-.086.203-.168.312-.247a.403.403 0 1 0-.484-.645zm0 0M7.336 21.07a.402.402 0 0 0-.39.414c.003.157.019.313.042.47a.4.4 0 0 0 .395.343c.02 0 .043-.004.062-.004a.403.403 0 0 0 .336-.461 3.853 3.853 0 0 1-.031-.371c-.008-.219-.195-.383-.414-.39zm0 0"/>
</svg>
